assets/icons/qvision/toll.svg

<svg xmlns="http://www.w3.org/2000/svg" height="24" viewBox="0 0 24 24" width="24"><path d="M0 0h24v24H0V0z" fill="none"/><path d="M15 4c-4.42 0-8 3.58-8 8s3.58 8 8 8 8-3.58 8-8-3.58-8-8-8zm0 14c-3.31 0-6-2.69-6-6s2.69-6 6-6 6 2.69 6 6-2.69 6-6 6z"/><path d="M3 12c0-2.61 1.67-4.83 4-5.65V4.26C3.55 5.15 1 8.27 1 12s2.55 6.85 6 7.74v-2.09c-2.33-.82-4-3.04-4-5.65z"/></svg>

<svg width="24" height="24" viewBox="0 0 24 24" fill="none" xmlns="http://www.w3.org/2000/svg">
<g clip-path="url(#clip0_147_4898)">
<path d="M15 4C10.58 4 7 7.58 7 12C7 16.42 10.58 20 15 20C19.42 20 23 16.42 23 12C23 7.58 19.42 4 15 4ZM15 18C11.69 18 9 15.31 9 12C9 8.69 11.69 6 15 6C18.31 6 21 8.69 21 12C21 15.31 18.31 18 15 18Z" fill="#323232"/>
<path d="M3 12C3 9.39001 4.67 7.17001 7 6.35001V4.26001C3.55 5.15001 1 8.27001 1 12C1 15.73 3.55 18.85 7 19.74V17.65C4.67 16.83 3 14.61 3 12Z" fill="#323232"/>
</g>
<defs>
<clipPath id="clip0_147_4898">
<rect width="24" height="24" fill="white"/>
</clipPath>
</defs>
</svg>
